X:54
T:Nincsen csillag az égen
M:4/4
L:1/4
K:D
DDEE | A<A G2 | F<D FE | D2 D2 |
AABB | e<e d2 | cA^GB | A2 A2 |
d<d c<B | AdA2 | d B/B/ A/G/F/G/ | B<A E2 |
D<D E<E | A A G2 | F<D F<E | D2 D2 |

